X: 2105
T: the HOUSE OF ACHLUNCART
C:
Q: "Reel."
R: Reel.
%R: reel
N: This is version 1, for ABC software that doesn't understand voice overlays.
B: James Kerr "Merry Melodies" v.2 p.13 #105
Z: 2016 John Chambers <jc:trillian.mit.edu>
M: C
L: 1/8
K: C
uc |\
c2c2 ecge | c2c2 dBGB |\
c2c2 ecgc | Bddc BGG :|\
c |:\
c2(Gc) EcGc | EcGc dDD \
[1 B | c2(Gc) EcGc | fedc BGGB :|\
[2 f | afge fdec | Bcde dBG |]
